en/guide/_images/other/project-edit-b.svg

<svg width="16" height="16" viewBox="0 0 16 16" xmlns="http://www.w3.org/2000/svg" style="vertical-align: middle;" class="Button2-Icon" role="img" focusable="false" aria-labelledby="icon Edit Filled"><path d="M14.4691 4.35926C14.1606 3.77395 13.7602 3.22443 13.2678 2.73206C12.7762 2.24042 12.2276 1.84048 11.6433 1.53223L11.6413 1.53021L12.5607 0.610736C13.0557 0.115761 13.8689 -0.202437 15.0356 0.964289C16.2023 2.13101 15.8841 2.94419 15.3892 3.43916L14.4691 4.35926ZM13.3425 5.4858L4.72967 14.0987C4.48476 14.3436 4.19164 14.5349 3.86888 14.6606L1.31676 15.6541C1.14176 15.7223 0.947569 15.7223 0.772571 15.6541C0.386578 15.5039 0.195487 15.0691 0.34576 14.6831L1.33934 12.131C1.46499 11.8083 1.65634 11.5151 1.90125 11.2702L10.5141 2.65738C11.1297 2.91352 11.7064 3.29197 12.2072 3.79272C12.7079 4.29346 13.0864 4.8702 13.3425 5.4858Z" fill="#7F8285"></path></svg>

<svg xmlns="http://www.w3.org/2000/svg" width="16" height="16" aria-labelledby="icon Edit Filled" class="Button2-Icon" style="vertical-align:middle"><path fill="#7F8285" d="M14.47 4.36a6.75 6.75 0 0 0-1.202-1.628 6.748 6.748 0 0 0-1.625-1.2l-.002-.002.92-.92c.495-.494 1.308-.812 2.475.354 1.166 1.167.848 1.98.353 2.475l-.92.92Zm-1.128 1.126L4.73 14.099a2.5 2.5 0 0 1-.861.562l-2.552.993a.75.75 0 0 1-.971-.97l.993-2.553a2.5 2.5 0 0 1 .562-.86l8.613-8.614a5.235 5.235 0 0 1 1.693 1.136c.5.5.88 1.077 1.135 1.693Z"/></svg>
